<?xml version="1.0" encoding="UTF-8"?>
<map version="1.10" tiledversion="1.10.1" orientation="orthogonal" renderorder="right-down" width="88" height="58" tilewidth="16" tileheight="16" infinite="0" nextlayerid="2" nextobjectid="1">
 <tileset firstgid="1" name="map_gen_pocket_clop" tilewidth="16" tileheight="16" tilecount="720" columns="40">
  <image source="../pytonJEU/fichierspycréés/projetencours/pocket_clop/RPG Nature Tileset.png" trans="000000" width="641" height="288"/>
 </tileset>
 <layer id="1" name="Calque de Tuiles 1" width="88" height="58">
  <data encoding="csv">
31,272,273,274,35,35,35,272,273,274,35,35,35,35,33,34,35,35,35,35,35,33,34,35,35,35,35,35,35,35,35,32,33,34,35,35,35,35,35,35,35,35,35,272,273,274,35,35,35,35,35,33,33,33,33,33,33,33,33,33,33,33,33,33,33,33,33,33,33,33,34,33,33,33,34,35,35,35,35,35,35,35,35,35,35,35,35,516,
71,563,353,353,353,353,353,354,393,394,354,354,354,354,354,354,354,354,354,354,354,354,354,354,354,354,354,354,354,354,354,354,354,354,354,354,354,353,353,354,296,164,164,163,164,204,354,353,354,354,353,354,354,394,394,394,394,354,354,354,354,354,354,354,353,353,354,354,354,354,354,354,354,354,353,353,353,353,353,353,353,353,353,353,353,353,354,316,
111,563,353,393,393,393,393,353,393,394,394,394,394,394,394,394,394,394,394,394,394,394,394,394,394,394,394,394,394,394,394,394,394,394,394,394,394,353,353,354,336,163,204,163,163,164,454,353,353,354,354,353,354,393,393,394,354,354,394,394,394,394,394,394,354,354,353,354,354,394,394,394,394,394,393,393,393,393,353,354,393,353,354,354,354,353,354,356,
151,563,393,393,394,394,354,393,393,393,393,393,393,393,393,393,393,393,393,393,393,393,393,393,393,393,353,353,353,353,353,393,393,393,393,393,251,252,253,254,253,256,164,164,163,164,204,393,353,353,353,354,353,353,353,354,394,394,393,393,353,354,354,354,354,354,354,394,394,354,393,393,393,393,353,393,393,353,353,354,354,354,353,354,394,354,354,396,
191,167,168,167,168,167,168,167,167,354,354,353,354,394,394,394,394,394,394,394,394,354,354,354,354,353,393,393,393,393,393,394,394,394,394,393,291,517,518,519,520,296,164,164,163,163,164,454,393,393,353,354,354,354,354,353,353,353,354,354,354,354,394,394,394,394,394,393,394,354,394,394,394,394,393,393,353,393,353,354,354,394,353,354,394,394,354,436,
249,249,250,393,250,354,393,394,167,394,394,354,354,393,393,393,353,353,353,393,394,394,394,394,394,393,394,394,394,354,354,354,354,354,354,353,291,557,558,559,560,296,164,164,164,163,163,164,454,393,353,353,353,353,353,353,353,353,353,353,353,353,353,353,353,353,353,353,353,353,353,353,353,353,393,394,393,393,353,354,394,353,353,354,393,394,354,76,
289,289,289,289,290,5,6,353,353,393,394,394,394,323,323,324,393,393,393,353,353,353,353,353,353,393,394,394,394,394,394,394,394,394,394,393,291,597,598,599,600,296,164,164,164,164,163,164,204,454,393,393,393,393,393,393,393,393,393,393,393,393,393,393,393,393,393,393,393,393,393,393,393,393,393,394,353,353,353,354,353,393,353,354,393,394,354,116,
329,329,329,329,330,45,46,353,393,393,394,393,394,363,323,323,323,323,324,393,393,393,393,393,353,353,353,353,353,353,353,353,354,393,394,354,291,637,5,6,640,296,252,252,252,164,163,164,203,204,454,393,394,394,394,354,394,394,353,353,393,394,393,393,353,353,354,354,354,354,354,354,354,393,393,394,393,353,353,354,393,393,353,354,393,394,354,156,
369,369,370,353,370,393,393,393,167,394,394,324,364,324,324,324,363,323,323,323,323,323,323,323,393,393,393,393,393,393,393,353,353,393,394,394,353,354,45,46,353,393,353,393,394,336,256,164,203,204,204,393,394,393,394,394,394,353,393,393,393,394,353,353,353,353,353,353,353,353,353,353,353,353,393,394,354,353,353,353,353,393,353,354,393,394,354,116,
71,167,168,167,168,167,168,167,167,393,394,354,323,324,364,364,324,324,324,324,324,324,363,363,323,323,323,324,323,323,323,393,393,393,393,394,393,394,353,353,393,394,393,353,353,354,296,164,163,164,204,393,394,393,394,393,393,393,393,394,393,393,393,393,393,393,393,393,353,354,354,354,354,354,393,394,354,353,353,393,353,354,354,354,393,394,354,156,
111,563,564,393,393,393,393,393,393,394,353,354,354,354,323,323,324,364,364,364,324,324,324,324,324,324,324,323,323,323,324,323,323,323,323,393,394,393,393,393,393,353,354,393,393,394,416,163,203,204,204,454,393,394,354,394,324,323,324,364,324,324,353,353,353,353,353,353,354,354,394,394,394,394,393,394,353,354,393,393,393,394,394,354,393,394,354,156,
151,563,563,564,564,393,393,393,393,393,353,353,354,394,354,324,324,324,323,363,364,324,324,324,324,364,364,324,323,323,323,324,324,363,323,323,323,323,323,353,354,353,354,354,393,394,336,163,203,204,204,204,393,394,394,394,354,363,364,353,353,353,393,393,393,393,393,353,354,394,364,353,393,394,393,394,353,354,393,394,393,393,394,394,394,353,354,436,
191,603,563,564,564,393,394,354,394,353,393,393,353,354,394,323,323,324,363,363,323,323,323,323,323,323,323,323,324,324,324,324,364,324,324,324,324,363,363,393,394,393,394,394,353,354,336,256,203,204,203,204,393,394,393,394,394,323,323,393,393,393,394,354,354,354,354,353,354,354,354,354,393,394,393,394,353,354,353,353,393,394,393,394,394,354,394,436,
71,563,564,564,604,393,394,394,393,393,393,393,393,353,353,354,363,323,323,323,363,363,363,363,363,363,323,323,324,364,323,323,324,364,364,364,324,324,324,324,363,323,324,393,393,394,354,296,203,204,203,204,323,323,323,393,394,354,354,354,354,354,394,394,394,353,353,353,353,354,394,394,394,354,393,394,353,354,353,393,394,394,353,393,394,354,394,436,
111,563,564,353,353,393,393,353,354,354,354,354,354,354,354,353,354,363,363,363,363,364,363,363,364,324,363,323,323,323,363,323,324,323,363,364,364,364,324,324,324,323,324,353,353,353,354,376,203,204,203,204,353,354,354,393,394,394,394,394,394,394,354,354,354,354,393,393,353,353,354,354,354,354,393,394,353,354,353,393,394,394,353,393,394,354,354,436,
71,563,353,393,353,354,354,354,354,394,394,394,394,394,394,354,354,354,354,364,364,364,364,364,364,353,354,354,354,354,354,354,324,363,363,323,323,363,364,364,324,324,324,393,393,393,394,416,203,204,203,204,353,354,394,393,394,353,353,353,353,353,354,394,394,394,354,354,354,354,354,394,394,394,393,394,393,353,354,393,394,394,353,393,394,353,354,436,
71,563,393,394,353,353,353,353,353,353,353,353,353,353,353,353,353,353,353,353,353,353,353,353,353,353,353,354,394,394,394,394,323,324,324,324,363,323,323,363,364,364,323,323,353,354,353,354,376,204,203,204,353,353,353,393,394,393,393,393,353,354,354,393,393,394,394,394,354,354,354,354,394,394,393,394,393,353,354,353,354,393,393,393,394,353,354,436,
71,563,393,394,393,393,393,393,393,393,353,354,393,393,393,393,393,393,393,393,393,393,393,393,393,393,353,353,354,353,393,394,323,324,364,364,324,324,324,324,324,324,324,323,393,353,393,394,416,204,203,204,393,353,353,393,394,394,353,354,354,354,394,323,324,353,393,394,394,394,394,394,393,394,393,394,354,353,354,353,354,393,393,394,393,353,354,436,
71,563,393,394,353,354,353,353,354,354,353,354,353,353,354,354,354,354,354,354,354,354,354,354,354,354,354,353,354,393,393,394,363,323,323,324,364,364,364,364,364,364,364,324,324,393,394,324,376,204,203,204,454,393,393,393,394,354,353,353,354,85,86,85,86,85,86,85,86,353,393,393,393,394,393,394,394,353,354,353,354,394,393,394,354,353,354,436,
71,563,393,394,353,353,353,353,354,353,354,353,393,393,353,353,353,353,353,353,353,353,353,353,354,394,394,354,354,323,324,324,324,324,324,324,324,324,324,363,363,363,363,364,364,364,364,364,255,256,203,204,204,454,393,393,394,394,353,354,354,125,126,125,126,125,126,125,126,353,354,394,393,394,353,393,394,353,354,354,394,394,393,394,354,353,354,436,
71,563,393,394,354,353,353,353,354,353,354,353,393,161,162,1,2,1,2,161,162,354,354,354,354,354,394,394,394,323,323,324,364,364,364,364,364,364,324,324,324,324,324,324,324,324,364,353,354,296,204,203,204,164,454,393,394,394,353,354,394,85,86,517,518,519,520,85,86,353,353,353,393,394,354,393,394,354,394,394,353,354,393,394,354,353,354,436,
111,563,564,393,394,353,353,353,353,353,354,353,393,1,2,41,42,41,42,1,2,394,394,394,394,394,324,324,324,363,323,323,324,323,323,323,363,364,364,364,364,364,364,364,364,364,353,393,394,376,204,203,204,164,204,393,394,394,354,354,394,125,126,557,558,559,560,125,126,353,354,353,393,394,354,393,394,354,393,394,353,354,393,394,354,353,354,436,
151,563,564,393,394,353,353,393,353,354,394,393,393,41,42,81,82,81,82,41,42,354,324,324,353,353,353,354,354,354,354,354,354,324,323,363,363,363,363,363,364,364,364,363,323,323,393,393,394,416,204,203,204,164,204,454,393,394,394,354,394,85,86,597,598,599,600,85,86,354,354,393,393,394,354,393,394,354,393,394,353,354,393,394,354,353,354,436,
311,564,564,393,394,353,393,393,353,353,353,393,393,3,4,121,122,121,122,3,4,354,353,353,353,393,393,394,394,394,394,394,394,323,323,324,363,363,363,363,363,363,364,364,363,363,393,394,354,354,203,203,204,204,203,204,393,394,394,394,354,125,126,637,5,6,640,125,126,353,353,393,394,353,353,393,394,354,393,394,353,354,393,394,354,353,354,436,
351,564,604,393,394,353,393,393,393,393,393,393,353,43,44,517,518,519,520,43,44,354,393,393,393,393,394,354,393,394,354,354,354,354,354,354,354,354,364,364,323,323,323,324,353,353,393,394,394,394,363,376,204,164,203,204,454,324,393,394,394,393,394,354,45,46,353,354,393,393,393,394,353,353,353,393,394,394,393,394,353,354,393,394,354,353,354,436,
391,563,564,393,353,353,393,393,353,393,394,323,353,3,4,557,558,559,560,3,4,354,393,394,354,394,394,354,394,394,394,394,394,394,394,394,394,394,323,324,324,324,324,324,393,393,393,393,393,394,363,416,204,204,203,204,204,324,324,364,324,324,393,394,323,324,393,394,354,393,394,394,353,353,353,354,354,394,393,394,353,353,393,394,354,353,354,436,
431,603,604,393,353,393,393,394,393,393,394,324,393,43,44,597,598,599,600,43,44,354,393,394,394,393,394,353,353,353,354,354,353,393,393,394,363,363,323,324,323,323,323,323,323,324,324,324,324,324,363,364,376,204,164,203,204,324,324,324,324,324,324,324,323,324,393,393,353,354,393,394,354,353,353,354,394,394,393,394,353,393,394,353,354,353,354,436,
191,563,564,393,353,393,394,353,354,323,324,353,393,81,82,637,5,6,640,81,82,354,393,394,393,393,394,354,354,354,394,394,393,393,394,363,364,363,363,364,363,363,323,324,323,324,324,324,324,324,324,324,416,204,204,203,204,454,364,364,364,364,364,364,323,324,393,394,393,353,393,394,353,354,353,354,393,394,393,394,353,393,394,353,354,353,354,436,
311,564,564,393,393,393,394,354,354,323,353,354,393,121,122,354,45,46,353,121,122,394,393,394,394,394,394,394,394,394,393,393,394,394,394,364,324,324,324,324,324,324,324,324,323,323,323,323,323,323,324,364,364,376,204,203,204,204,164,164,454,364,363,364,323,324,393,394,393,353,354,393,353,353,353,354,394,394,393,394,353,393,394,353,354,353,354,436,
351,604,604,393,394,354,394,354,394,354,354,354,394,393,394,394,354,354,393,394,354,323,323,323,324,364,364,353,393,393,393,393,394,364,363,364,364,324,364,364,364,364,364,324,363,363,363,363,363,363,323,323,324,416,204,204,203,204,204,204,204,454,363,364,323,324,393,394,393,353,353,393,353,393,353,353,353,353,354,393,393,393,394,354,354,354,354,436,
391,604,603,393,394,354,394,354,394,394,394,394,393,393,394,394,394,394,394,394,394,324,363,363,323,324,324,393,393,394,324,324,324,324,363,363,364,364,324,323,323,323,323,323,323,323,323,324,324,323,323,324,324,363,376,204,164,163,203,204,204,204,454,364,323,324,393,394,393,393,353,393,393,393,393,393,393,353,353,393,393,394,394,354,394,394,354,436,
431,563,603,393,394,354,394,354,394,323,393,353,353,393,394,354,354,354,394,394,323,324,323,324,324,324,364,364,364,323,323,324,364,323,324,324,363,364,364,324,363,363,323,324,324,324,324,324,323,363,323,324,324,324,416,204,204,203,203,204,203,204,204,454,323,324,393,394,393,394,393,394,393,393,394,364,393,393,393,393,393,394,393,394,393,394,354,436,
191,603,603,353,393,394,394,394,394,324,393,393,393,393,394,394,354,394,523,524,323,324,363,364,324,323,324,324,324,363,363,323,323,363,364,364,323,363,364,364,324,323,323,324,324,364,364,323,363,363,323,324,364,323,323,336,204,204,204,164,164,203,204,204,454,454,324,393,394,394,394,354,354,323,363,353,353,393,394,393,393,394,354,353,354,393,394,316,
191,603,604,393,353,353,393,394,354,353,393,394,354,522,393,394,394,324,324,324,324,324,324,323,323,323,324,364,324,364,364,363,363,323,363,323,323,323,363,364,364,324,324,364,364,323,363,363,363,364,323,324,363,363,363,363,364,336,204,204,204,164,203,204,204,204,454,454,454,393,394,394,394,363,364,393,393,353,393,393,394,353,354,353,354,394,394,356,
191,603,604,393,353,353,353,354,353,354,393,394,394,562,323,324,324,364,364,364,364,364,364,363,363,323,323,323,323,323,323,323,323,363,363,363,363,363,363,363,364,363,364,363,364,363,364,363,364,364,323,324,323,323,363,323,323,363,363,336,204,204,204,164,203,204,204,204,204,454,393,394,394,353,353,354,393,393,393,393,394,354,394,353,354,393,394,396,
191,603,604,393,393,393,393,353,353,353,393,394,394,323,324,324,364,602,602,602,522,523,363,363,364,363,363,363,363,323,363,363,363,364,364,364,364,364,323,323,31,207,208,207,207,207,208,36,364,324,323,324,324,323,323,363,363,363,364,323,323,336,204,204,204,204,164,203,204,204,454,393,353,393,353,353,354,393,394,393,394,354,353,353,354,393,394,436,
111,603,604,393,394,393,394,393,393,393,394,393,394,324,324,364,497,498,498,499,500,563,564,565,565,323,323,324,323,363,363,364,324,324,324,364,364,323,363,363,207,208,207,208,207,208,207,208,364,323,324,323,323,363,363,364,324,323,323,363,323,324,323,376,584,204,204,164,203,204,204,393,393,394,393,353,353,354,393,394,394,354,354,353,354,393,394,436,
151,603,604,393,394,323,324,364,393,393,393,393,394,324,364,565,537,538,95,539,540,523,524,323,323,323,324,324,363,363,364,324,364,364,364,364,324,324,323,363,167,168,517,518,519,520,167,168,363,323,323,363,363,364,364,364,364,363,363,323,324,364,363,416,583,584,204,204,204,203,204,393,394,393,394,393,353,353,354,393,394,394,394,354,354,393,394,436,
191,603,604,393,394,354,354,354,353,354,354,354,323,324,604,605,577,95,95,95,613,563,564,363,323,324,324,364,363,364,364,364,364,364,364,364,323,323,363,363,207,208,557,558,559,560,207,208,363,363,363,364,324,323,323,363,364,323,323,323,323,323,323,336,583,583,584,203,204,203,204,363,353,354,394,354,393,353,353,353,393,393,394,394,394,393,394,436,
111,603,604,393,394,394,394,394,354,354,394,394,323,324,644,645,577,578,95,579,580,603,323,324,324,324,364,323,363,363,364,363,364,324,323,323,363,363,364,363,167,168,597,598,599,600,167,168,324,363,364,323,324,363,363,323,323,363,363,323,324,363,323,323,336,623,584,203,163,203,204,364,393,394,394,394,354,393,393,393,394,393,353,353,354,393,394,436,
151,603,604,393,394,393,393,394,354,394,393,394,323,324,522,523,617,618,613,619,620,324,324,324,364,364,323,363,364,322,323,363,323,323,363,363,364,324,324,363,231,236,637,5,6,640,231,236,323,324,364,323,324,323,323,363,363,363,364,323,323,323,363,363,364,336,583,584,203,203,204,353,353,353,393,394,394,394,394,394,394,354,353,353,353,393,394,436,
191,603,604,323,324,393,394,394,394,353,393,394,323,323,324,563,323,324,324,364,323,323,323,323,323,323,323,323,323,323,323,323,363,363,364,364,364,364,364,363,364,324,324,45,46,324,324,324,323,324,364,323,323,363,363,363,364,323,324,323,363,363,363,364,324,336,583,583,583,583,584,393,353,353,354,353,353,353,354,393,394,394,393,393,393,393,394,436,
71,603,604,323,353,393,353,393,393,393,393,394,363,323,323,323,363,364,364,364,363,363,363,363,323,323,323,363,363,363,363,363,364,363,363,363,363,363,363,363,364,364,364,364,364,364,364,364,323,323,324,363,363,323,363,364,324,324,324,363,363,364,323,324,324,364,336,623,623,583,583,454,393,353,353,393,393,353,353,353,353,353,353,353,353,353,354,436,
311,603,604,323,393,393,393,393,394,354,354,354,354,354,363,363,363,363,364,643,644,645,563,563,564,363,363,363,364,563,564,564,564,564,564,564,564,564,564,564,564,363,363,363,363,363,364,364,324,323,324,363,363,363,364,364,364,364,364,363,364,324,324,353,353,353,354,336,203,583,584,584,454,393,393,393,394,393,393,393,393,393,393,393,353,354,354,436,
351,603,604,363,393,394,393,394,394,394,394,394,394,394,564,564,564,563,563,563,563,563,563,563,563,563,563,563,563,563,564,604,604,604,604,604,604,604,604,604,604,564,363,364,364,364,364,364,364,324,324,353,354,354,354,354,354,354,364,364,364,323,323,393,393,353,354,336,204,583,584,624,624,454,454,454,454,454,454,454,454,454,454,454,393,353,354,436,
391,604,564,353,393,394,323,353,354,354,564,564,564,564,564,604,604,603,603,603,603,603,603,603,603,603,603,603,563,563,563,563,563,563,563,563,563,563,564,603,603,604,323,323,323,323,323,363,364,364,324,353,354,394,394,394,394,394,354,354,354,354,354,354,354,353,353,354,296,623,624,623,624,584,583,583,583,583,583,583,583,583,583,583,454,393,394,316,
431,604,604,393,393,394,354,353,354,394,563,564,564,564,563,563,563,603,604,604,604,564,564,564,564,564,564,564,603,603,603,603,603,563,563,563,563,563,563,563,563,563,563,563,563,563,564,564,564,564,564,353,354,353,393,393,393,393,394,353,353,353,354,394,394,354,354,354,336,623,623,624,583,583,584,584,584,584,584,584,584,584,584,583,584,454,454,356,
111,603,604,393,394,394,394,354,354,564,563,564,604,604,564,564,603,603,563,563,603,563,563,563,563,563,563,563,564,564,564,564,564,603,603,603,603,603,603,563,564,564,564,564,564,564,564,604,604,604,604,353,353,353,353,353,353,353,353,393,393,353,354,353,353,354,394,394,376,624,624,583,623,583,584,583,583,583,583,583,584,624,624,584,584,584,624,396,
151,603,604,564,564,393,394,394,394,604,564,564,564,564,564,604,564,564,603,603,603,603,603,563,564,564,564,564,564,604,604,604,604,604,563,563,563,563,563,563,563,563,563,563,563,563,563,563,563,563,563,563,564,393,393,393,393,393,393,393,394,353,354,353,354,354,394,354,416,584,583,623,623,583,584,583,584,584,584,584,584,584,624,624,624,624,624,436,
191,603,604,604,604,604,564,564,604,603,604,604,604,604,604,604,604,604,564,564,564,563,563,563,564,604,604,604,604,564,564,564,564,564,564,563,563,563,563,563,563,563,563,563,563,563,564,564,564,564,564,564,564,354,354,354,394,394,354,354,353,354,354,353,354,394,394,353,354,336,584,623,624,583,583,583,583,584,624,624,624,624,584,583,583,623,624,436,
71,563,564,564,603,604,604,604,564,564,564,564,563,563,564,564,564,603,604,604,564,564,564,564,564,564,564,564,564,604,604,604,604,604,604,603,603,603,603,603,603,603,603,603,603,603,563,563,564,564,604,604,604,354,394,394,353,353,353,353,353,353,353,354,354,354,393,353,353,354,336,624,584,623,583,623,583,584,584,584,584,623,624,584,584,584,584,436,
111,563,564,563,564,564,564,564,564,564,564,564,603,563,563,563,563,563,563,603,604,604,564,564,564,604,604,604,604,603,603,603,604,563,563,563,563,563,563,564,564,564,564,564,564,564,564,564,564,604,564,353,353,353,354,394,393,393,353,354,354,354,354,354,354,394,354,393,353,353,353,353,354,336,583,584,584,624,624,583,583,623,624,584,584,624,624,356,
151,563,564,563,564,604,563,563,563,563,563,563,563,603,603,603,603,603,603,603,603,604,604,604,604,564,564,564,603,604,564,564,564,564,564,564,603,603,603,563,563,563,563,563,563,563,563,563,564,604,604,353,354,354,354,354,354,354,354,394,394,394,394,394,354,394,394,354,393,393,393,353,353,354,336,584,252,253,252,253,254,252,253,254,624,583,623,356,
191,563,564,563,563,563,603,603,603,563,563,563,563,563,563,563,563,563,563,563,563,563,563,603,604,604,604,604,564,564,564,564,564,564,604,604,564,564,564,564,564,564,564,564,564,564,564,564,564,564,564,564,354,394,354,394,394,394,394,353,393,394,394,394,354,393,394,394,354,353,354,354,353,353,353,353,353,353,353,353,353,353,353,353,354,336,623,396,
71,563,564,603,603,603,604,563,563,603,603,603,603,603,603,603,603,603,603,603,603,603,603,603,603,603,603,603,604,604,604,604,604,604,603,604,604,604,604,604,604,604,604,604,604,604,604,604,604,604,604,604,354,394,394,353,353,353,353,393,393,393,393,394,354,354,353,354,354,354,354,353,354,354,354,393,393,393,393,353,354,354,354,354,354,354,336,396,
111,563,563,563,563,603,603,563,563,563,563,563,563,563,563,563,563,563,563,563,563,563,563,563,563,563,563,563,563,563,563,563,563,563,563,563,563,563,563,563,563,563,563,563,563,563,563,563,563,563,603,604,353,353,353,354,393,393,393,393,394,354,354,354,394,394,354,354,394,394,394,354,354,394,394,354,354,354,354,354,354,394,354,354,394,353,354,436,
151,603,603,603,603,603,604,603,603,603,603,603,603,603,603,603,603,603,603,603,603,603,603,603,603,603,603,603,603,603,603,603,603,603,603,603,603,603,603,603,603,603,603,603,603,603,603,603,603,603,603,604,393,393,393,394,393,394,394,394,394,394,394,394,393,394,394,394,393,393,393,394,394,393,394,394,394,394,394,394,394,394,394,394,393,393,394,436,
231,232,233,234,232,232,472,473,474,475,232,232,232,232,472,473,474,475,232,232,232,232,232,232,472,473,474,475,232,232,232,472,473,474,475,232,232,232,232,232,232,232,232,233,234,235,232,472,473,474,475,232,472,473,474,472,473,474,475,232,232,472,473,474,475,232,232,232,232,472,473,474,475,472,473,474,475,232,232,472,473,474,475,232,233,234,235,476
</data>
 </layer>
</map>
